X: 581
%
U:~=!turn!
T: The Smith's a Gallant Fireman
C:
O:Scotland
B:Keith Norman MacDonald : "The Skye collection of the best reels & strathspeys extant" : 1887
Z:Ralph Palmer
R:Strathspey
M:C
L:1/8
K:B aeolian
F | (D3 F) A/2A/2A (A>F) | A>B{/c}d>A F/2F/2F (F<D) | E2 E>F B/2B/2B (BA) | d>f{/f}e>d B/2B/2B B2 |
(D3 F) A/2A/2A A>F | A>B{Bc}d>A F/2F/2F (FD) | G>BG>B F>AF>A | {/F}E>DE>F B/2B/2B B :|
c | (d2 d)>f d/2d/2d (d>A) | B>A{/c}d>A F/2F/2F (F>D) | (e3 f) e/2e/2e (e>f) | {ef}g>fe>d B/2B/2B (B<e) |
(d2 d)>f d/2d/2d (d>A) | B>A{/c}d>A F/2F/2F (F>D) | G>BG>B F>AF>A | {/F}E>DE>F B/2B/2B B |]


